Newaita-dark/.DP/24/protonmail-indicator.svg

<svg xmlns="http://www.w3.org/2000/svg" xmlns:xlink="http://www.w3.org/1999/xlink" width="24px" height="24px" viewBox="0 0 24 24" version="1.1">
<g id="surface1">
<path style=" stroke:none;fill-rule:nonzero;fill:rgb(93.333334%,93.333334%,93.333334%);fill-opacity:1;" d="M 11.90625 3.164062 C 8.609375 3.164062 5.953125 5.378906 5.953125 8.125 L 5.953125 12.09375 L 5.289062 12.09375 L 11.90625 16.644531 L 18.523438 12.09375 L 17.863281 12.09375 L 17.863281 8.125 C 17.863281 5.378906 15.203125 3.164062 11.90625 3.164062 Z M 11.90625 5.148438 C 14.105469 5.148438 15.878906 6.476562 15.878906 8.125 L 15.878906 12.09375 L 7.9375 12.09375 L 7.9375 8.125 C 7.9375 6.476562 9.710938 5.148438 11.90625 5.148438 Z M 3.972656 13.007812 C 3.96875 13.03125 3.96875 13.0625 3.96875 13.089844 L 3.96875 20.03125 C 3.96875 20.582031 4.410156 21.027344 4.960938 21.027344 L 18.851562 21.027344 C 19.117188 21.027344 19.371094 20.921875 19.554688 20.734375 C 19.742188 20.550781 19.847656 20.296875 19.84375 20.03125 L 19.84375 13.089844 C 19.84375 13.058594 19.84375 13.03125 19.84375 13.007812 L 12.332031 18.171875 C 12.074219 18.347656 11.738281 18.347656 11.480469 18.171875 Z M 3.972656 13.007812 "/>
</g>
</svg>

<svg xmlns="http://www.w3.org/2000/svg" width="32" height="32" viewBox="0 0 24 24"><path d="M11.906 3.164c-3.297 0-5.953 2.215-5.953 4.961v3.969h-.66l6.613 4.55 6.617-4.55h-.664V8.125c0-2.746-2.652-4.96-5.953-4.96zm0 1.984c2.2 0 3.969 1.329 3.969 2.977v3.969H7.937V8.125c0-1.648 1.77-2.977 3.97-2.977zm-7.933 7.86c-.004.023-.004.05-.004.078v6.945c0 .551.441.996.992.996h13.89c.551 0 .993-.445.993-.996v-6.945-.078l-7.512 5.16a.747.747 0 0 1-.848 0zm0 0" fill="#bdbdbd"/></svg>
